src/actions/16/edit-bomb.svg

<svg xmlns="http://www.w3.org/2000/svg" viewBox="0 0 16 16">
  <defs id="defs3051">
    <style type="text/css" id="current-color-scheme">
      .ColorScheme-Text {
        color:#363636;
      }
      </style>
  </defs>
 <path style="fill:currentColor;fill-opacity:1;stroke:none" 
     d="M 14 2 C 13.011 2.203 12.093781 2.7821875 11.550781 3.6171875 C 11.362781 3.5331875 11.219 3.5 11 3.5 C 10.844 3.5 10.695688 3.5302187 10.554688 3.5742188 C 9.7016875 3.0542187 8.702 2.75 7.625 2.75 C 4.509 2.75 2 5.259 2 8.375 C 2 11.491 4.509 14 7.625 14 C 10.741 14 13.25 11.491 13.25 8.375 C 13.25 7.299 12.946781 6.2983125 12.425781 5.4453125 C 12.469781 5.3033125 12.5 5.156 12.5 5 C 12.5 4.664 12.490688 4.5282969 12.304688 4.2792969 C 12.706687 3.6252969 13.242 3.197 14 3 L 14 2 z "
     class="ColorScheme-Text"
     />
</svg>

<svg xmlns="http://www.w3.org/2000/svg" viewBox="0 0 16 16">
    <path d="M14 2c-.989.203-1.906.782-2.45 1.617A1.21 1.21 0 0 0 11 3.5c-.156 0-.304.03-.445.074a5.605 5.605 0 0 0-2.93-.824A5.613 5.613 0 0 0 2 8.375 5.613 5.613 0 0 0 7.625 14a5.613 5.613 0 0 0 5.625-5.625 5.598 5.598 0 0 0-.824-2.93c.044-.142.074-.289.074-.445 0-.336-.01-.472-.195-.72.402-.655.937-1.083 1.695-1.28V2z" style="fill:currentColor;fill-opacity:1;stroke:none;color:#050505;opacity:.7"/>
</svg>
